public/images/logos/gemini.svg

<?xml version="1.0" encoding="UTF-8" standalone="no"?>
<!-- Created with Vectornator (http://vectornator.io/) -->

<svg height="32" stroke-miterlimit="10" style="clip-rule:evenodd;fill-rule:nonzero;stroke-linecap:round;stroke-linejoin:round" version="1.1" viewBox="0 0 32 32" width="32" xml:space="preserve" id="svg9" sodipodi:docname="gemini.svg" inkscape:version="1.4-beta2 (9aaf4f34, 2024-07-30)" xmlns:inkscape="http://www.inkscape.org/namespaces/inkscape" xmlns:sodipodi="http://sodipodi.sourceforge.net/DTD/sodipodi-0.dtd" xmlns="http://www.w3.org/2000/svg" xmlns:svg="http://www.w3.org/2000/svg"><sodipodi:namedview id="namedview9" pagecolor="#ffffff" bordercolor="#000000" borderopacity="0.25" inkscape:showpageshadow="2" inkscape:pageopacity="0.0" inkscape:pagecheckerboard="0" inkscape:deskcolor="#d1d1d1" inkscape:zoom="1.2078664" inkscape:cx="135.36265" inkscape:cy="12.832545" inkscape:window-width="1440" inkscape:window-height="790" inkscape:window-x="0" inkscape:window-y="0" inkscape:window-maximized="1" inkscape:current-layer="svg9" />
<defs id="defs1">











</defs>
<g id="g9" transform="matrix(1.3229494,0,0,1.3229494,-160.59489,-5.860805e-7)"><path d="m 133.393,0.747928 c -0.285,1.010092 -0.848,2.621602 -1.187,3.377242 -0.964,2.12812 -2.483,3.90156 -4.727,5.50537 -1.395,1.00236 -2.845,1.65006 -4.657,2.08186 -1.056,0.2544 -1.272,0.3161 -1.272,0.3855 0,0.0309 0.254,0.1157 0.563,0.1928 1.071,0.2544 3.107,0.9098 3.724,1.2028 1.557,0.7248 3.786,2.6371 5.081,4.3565 0.941,1.2414 1.897,3.2693 2.236,4.742 0.316,1.3494 0.378,1.5653 0.471,1.5961 0.046,0.0155 0.239,-0.6168 0.47,-1.5421 0.547,-2.2283 0.972,-3.0765 2.537,-5.0658 0.347,-0.4473 0.979,-1.1412 1.395,-1.5422 1.866,-1.8197 2.869,-2.4057 5.806,-3.3849 0.787,-0.2622 1.481,-0.4935 1.543,-0.5166 0.185,-0.0694 -0.201,-0.2313 -1.034,-0.4472 -1.303,-0.3393 -3.022,-1.0718 -4.04,-1.7195 -1.018,-0.64769 -2.39,-1.75801 -2.845,-2.31318 -0.17,-0.20047 -0.702,-0.90985 -1.172,-1.56525 C 134.997,4.31793 134.311,2.82979 134.002,1.14888 133.856,0.38553 133.748,0 133.663,0 c -0.038,0 -0.162,0.339266 -0.27,0.747928 z" fill="#000000" fill-rule="nonzero" opacity="1" stroke="none" id="path1" /></g>
</svg>

<?xml version="1.0" encoding="UTF-8" standalone="no"?>
<!DOCTYPE svg PUBLIC "-//W3C//DTD SVG 1.1//EN" "http://www.w3.org/Graphics/SVG/1.1/DTD/svg11.dtd">
<!-- Created with Vectornator (http://vectornator.io/) -->
<svg height="100%" stroke-miterlimit="10" style="fill-rule:nonzero;clip-rule:evenodd;stroke-linecap:round;stroke-linejoin:round;" version="1.1" viewBox="0 0 197 80" width="100%" xml:space="preserve" xmlns="http://www.w3.org/2000/svg" xmlns:xlink="http://www.w3.org/1999/xlink">
<defs/>
<g id="Sem-Título">
<g opacity="1">
<path d="M133.393 0.747928C133.108 1.75802 132.545 3.36953 132.206 4.12517C131.242 6.25329 129.723 8.02673 127.479 9.63054C126.084 10.6329 124.634 11.2806 122.822 11.7124C121.766 11.9668 121.55 12.0285 121.55 12.0979C121.55 12.1288 121.804 12.2136 122.113 12.2907C123.184 12.5451 125.22 13.2005 125.837 13.4935C127.394 14.2183 129.623 16.1306 130.918 17.85C131.859 19.0914 132.815 21.1193 133.154 22.592C133.47 23.9414 133.532 24.1573 133.625 24.1881C133.671 24.2036 133.864 23.5713 134.095 22.646C134.642 20.4177 135.067 19.5695 136.632 17.5802C136.979 17.1329 137.611 16.439 138.027 16.038C139.893 14.2183 140.896 13.6323 143.833 12.6531C144.62 12.3909 145.314 12.1596 145.376 12.1365C145.561 12.0671 145.175 11.9052 144.342 11.6893C143.039 11.35 141.32 10.6175 140.302 9.9698C139.284 9.32211 137.912 8.21179 137.457 7.65662C137.287 7.45615 136.755 6.74677 136.285 6.09137C134.997 4.31793 134.311 2.82979 134.002 1.14888C133.856 0.38553 133.748 0 133.663 0C133.625 0 133.501 0.339266 133.393 0.747928Z" fill="#000000" fill-rule="nonzero" opacity="1" stroke="none"/>
<path d="M23.4325 20.0553C21.4894 20.1632 18.9912 20.541 17.5879 20.942C15.6988 21.474 12.5451 23.0084 10.71 24.2807C9.36838 25.2059 7.17857 27.1259 6.17619 28.2593C3.96325 30.7421 2.16668 33.8495 1.25683 36.7564C0.63998 38.7226 0.478057 39.4705 0.177344 41.5987C0.0308424 42.6473 0.0077106 43.1793 0 45.1455C0 47.1195 0.0231318 47.6284 0.169633 48.6153C0.732507 52.5246 1.94307 55.763 4.08662 59.1094C5.33573 61.0448 8.0036 63.7975 10.1317 65.3242C10.4093 65.5247 10.7717 65.7945 10.949 65.9179C11.8126 66.5656 14.095 67.7607 15.5831 68.3467C17.2563 69.0021 19.7006 69.5958 21.6976 69.8272C23.0932 69.9891 26.5861 70.0122 27.8275 69.8734C30.1716 69.6036 32.2149 69.0869 34.4972 68.1848C37.6354 66.9511 39.2392 65.8793 41.83 63.304C43.9967 61.1527 44.7677 60.1272 45.8395 57.9914C46.8727 55.9404 47.5821 53.6272 47.9985 51.0056C48.2838 49.1859 48.2683 44.8525 47.9676 43.989C47.7749 43.4184 48.2375 43.4569 40.3573 43.4261C31.1585 43.3875 25.1288 43.4646 24.9746 43.6188C24.8744 43.7114 24.859 44.1277 24.859 46.0631C24.859 48.5305 24.8975 48.8543 25.1905 48.9237C25.283 48.9469 29.1306 48.9777 33.7416 48.9854C40.072 48.9931 42.1461 49.024 42.2155 49.0934C42.4314 49.3093 41.8763 52.0697 41.2748 53.7351C40.4112 56.1409 39.432 57.6676 37.62 59.4718C36.7718 60.32 36.1087 60.852 34.8442 61.6848C33.8572 62.3325 33.41 62.5715 32.4153 62.957C29.6472 64.0442 27.149 64.4375 23.9722 64.2987C21.5357 64.1907 20.6336 64.0442 18.6828 63.4119C17.3257 62.9724 15.3132 62.024 14.5268 61.438C14.4188 61.3609 13.9562 61.014 13.4858 60.6747C12.0748 59.626 9.88499 57.3437 9.01369 55.9866C7.82626 54.1592 6.72364 51.2832 6.27643 48.9006C5.88319 46.7879 5.92174 42.9172 6.36124 40.7505C6.74677 38.8151 7.55638 36.5636 8.41226 35.0061C9.83872 32.4308 11.99 30.2255 15.0896 28.1822C16.2771 27.3958 18.3281 26.563 20.1169 26.1389C21.0268 25.9153 23.7641 25.5992 24.697 25.5992C26.6401 25.5992 29.5085 26.1158 31.2973 26.7866C33.7724 27.7119 35.0138 28.4521 36.8489 30.1022C37.4427 30.6342 37.9901 31.0737 38.0672 31.0737C38.2368 31.0737 39.3703 30.0405 40.7505 28.6372C41.9611 27.3958 42.0921 27.2261 42.0228 26.9331C41.9148 26.5245 40.365 25.0826 39.2007 24.3115C37.566 23.2243 35.8234 22.3607 33.4871 21.474C31.7985 20.834 30.5494 20.5256 28.4058 20.248C27.6656 20.1478 24.7587 19.9473 24.6276 19.9782C24.6045 19.9859 24.0725 20.0244 23.4325 20.0553Z" fill="#000000" fill-rule="nonzero" opacity="1" stroke="none"/>
<path d="M145.954 20.6336C144.705 20.9343 144.088 21.2504 143.402 21.9289C142.661 22.6692 142.291 23.6484 142.291 24.8358C142.291 25.7765 142.469 26.3548 142.993 27.149C143.941 28.5755 145.777 29.2848 147.411 28.8685C148.575 28.5678 149.616 27.7736 150.141 26.7712C150.503 26.0849 150.711 25.0363 150.619 24.3192C150.426 22.8234 149.593 21.6745 148.182 20.9651C147.619 20.6798 147.504 20.649 146.833 20.6258C146.432 20.6104 146.039 20.6104 145.954 20.6336Z" fill="#000000" fill-rule="nonzero" opacity="1" stroke="none"/>
<path d="M191.069 20.7492C190.143 20.9651 188.979 21.8827 188.524 22.7385C188.223 23.3168 187.938 24.2884 187.938 24.7587C187.938 25.5683 188.354 26.6324 188.956 27.3418C190.066 28.668 191.377 29.1923 192.803 28.8993C194.06 28.6372 195.286 27.7967 195.78 26.856C196.25 25.9616 196.389 25.1982 196.266 24.1342C196.096 22.6306 194.962 21.2735 193.497 20.8186C192.965 20.649 191.647 20.6181 191.069 20.7492Z" fill="#000000" fill-rule="nonzero" opacity="1" stroke="none"/>
<path d="M65.6095 35.2914C63.3888 35.5536 62.0549 35.9391 60.3123 36.8181C57.7986 38.0826 55.8864 39.8638 54.0127 42.6627C52.9332 44.2665 51.954 47.0038 51.5762 49.4635C51.4065 50.5584 51.3449 52.8639 51.4528 54.2518C51.7612 58.2767 52.887 61.1836 55.2927 64.1599C57.1587 66.4731 58.8858 67.7145 62.0626 69.033C62.8645 69.3645 64.584 69.7578 66.049 69.9351C67.0128 70.0585 69.5804 69.9968 70.6599 69.8272C73.0194 69.4493 75.9648 68.2696 77.7845 66.9665C78.9796 66.1107 80.6143 64.5146 81.3468 63.4891C81.8326 62.8028 82.4571 61.6771 82.4571 61.4766C82.4571 61.2684 81.8942 60.8906 80.676 60.2892C80.1748 60.0347 79.743 59.8342 79.7199 59.8342C79.7044 59.8342 79.4346 59.7109 79.1261 59.5566C78.3936 59.202 77.8308 58.9861 77.6303 58.9861C77.4375 58.9861 77.1368 59.3099 76.5045 60.1889C76.2578 60.5205 75.7026 61.1605 75.2708 61.6077C74.0526 62.8568 72.9885 63.5507 71.562 64.0365C69.5881 64.7073 67.6065 64.7844 65.409 64.2755C64.0211 63.9517 62.6409 63.25 61.4072 62.2399C60.2043 61.2607 58.9475 59.68 58.4772 58.5466C57.7138 56.7346 57.228 54.0436 57.5982 53.7351C57.6984 53.6503 59.9653 53.6272 70.4903 53.6195C80.9998 53.6041 83.259 53.5809 83.313 53.4961C83.5058 53.2031 83.3207 50.3579 83.0277 49.0008C82.6499 47.2428 82.1564 45.2766 81.9559 44.7215C81.4085 43.2179 80.6066 41.8608 79.4114 40.4421C77.9079 38.6532 76.6433 37.6586 74.7465 36.7487C72.3485 35.6075 70.5288 35.2297 67.4986 35.2451C66.5887 35.2528 65.7405 35.276 65.6095 35.2914ZM68.9713 40.712C70.3284 40.8507 71.8628 41.3057 72.8883 41.884C73.9986 42.5085 75.4945 44.2203 76.2501 45.7238C76.6665 46.572 76.8592 47.3045 76.8669 48.0756L76.8669 48.6924L67.46 48.6924L58.0531 48.6924L58.03 48.3994C57.9837 47.8597 58.6082 46.2867 59.387 44.9913C60.1195 43.7653 61.2992 42.5085 62.2399 41.9534C64.0673 40.8662 66.3188 40.4498 68.9713 40.712Z" fill="#000000" fill-rule="nonzero" opacity="1" stroke="none"/>
<path d="M102.659 35.2837C102.551 35.2991 102.204 35.3531 101.888 35.3993C101.572 35.4456 101.001 35.5844 100.623 35.7078C99.8522 35.9622 98.0017 36.9029 97.0687 37.5198C96.2899 38.0364 94.9483 39.3395 94.4163 40.1105C93.6375 41.2209 93.5835 41.1283 93.5141 38.5992C93.4679 36.8798 93.437 36.5791 93.3291 36.4711C93.2134 36.3555 92.905 36.3323 90.854 36.2861C89.5663 36.2629 88.3943 36.2552 88.2555 36.2861C88.1167 36.3169 87.9702 36.4017 87.9316 36.4788C87.8237 36.6639 87.8237 68.578 87.9239 68.7708C87.9856 68.8711 88.1321 68.925 88.5099 68.9636C89.0651 69.0176 91.864 69.0098 93.0052 68.9559C93.6838 68.9173 93.7223 68.9019 93.7609 68.7245C93.7917 68.6166 93.8225 64.2293 93.8303 58.9629C93.838 52.7251 93.8765 49.2553 93.9228 49.0008C93.969 48.7849 94.0461 48.4071 94.1001 48.1527C94.4085 46.572 95.1179 45.0607 96.1897 43.7037C96.9299 42.763 98.1096 41.7606 98.9964 41.3057C100.901 40.3418 104.525 40.4189 106.553 41.4599C107.332 41.8685 108.141 42.7167 108.604 43.6111C109.005 44.3822 109.205 44.9605 109.46 46.0323C109.629 46.7648 109.629 46.7802 109.668 57.8063C109.691 63.8746 109.745 68.8711 109.776 68.9096C109.814 68.9404 111.11 68.9713 112.652 68.9713C114.788 68.9636 115.482 68.9404 115.551 68.8711C115.628 68.7939 115.659 66.6581 115.698 58.9629C115.736 49.371 115.744 49.1396 115.906 48.3146C115.991 47.8597 116.176 47.158 116.307 46.7648C116.839 45.1687 118.52 42.8863 119.892 41.8994C121.187 40.9741 122.868 40.5654 125.02 40.658C127.202 40.7505 128.952 41.483 129.885 42.6859C130.872 43.9581 131.35 45.4385 131.458 47.5744C131.481 48.0601 131.512 52.9718 131.527 58.4849C131.543 66.3574 131.574 68.5549 131.643 68.7091L131.743 68.9096L133.016 68.9713C133.717 69.0021 134.997 69.0021 135.861 68.9713C137.364 68.9173 137.434 68.9019 137.488 68.7477C137.58 68.5087 137.518 48.6153 137.426 47.0732C137.318 45.3306 137.04 43.7808 136.57 42.3312C135.907 40.2802 134.373 38.26 132.537 37.0109C130.587 35.6924 128.389 35.1603 125.228 35.2606C123.161 35.33 121.974 35.5381 120.763 36.0548C119.375 36.6408 118.89 36.9646 117.27 38.3294C116.199 39.2315 115.52 39.964 114.741 41.0358C114.626 41.1977 114.487 41.3288 114.433 41.3288C114.379 41.3288 114.179 41.0589 113.993 40.7274C113.808 40.4035 113.477 39.8869 113.261 39.5939C112.752 38.9154 111.148 37.3424 110.601 36.9954C109.49 36.2861 107.918 35.6692 106.63 35.4302C105.967 35.3068 103.137 35.1989 102.659 35.2837Z" fill="#000000" fill-rule="nonzero" opacity="1" stroke="none"/>
<path d="M170.474 35.3145C168.654 35.4225 167.559 35.7001 166.441 36.3246C166.21 36.4557 165.624 36.7641 165.13 37.0263C163.796 37.7202 162.74 38.6301 161.583 40.0797C160.982 40.843 160.797 40.9356 160.712 40.5192C160.681 40.3881 160.658 39.432 160.65 38.3911C160.643 36.9569 160.619 36.4711 160.542 36.4094C160.481 36.3555 159.517 36.3169 157.851 36.3015C155.577 36.2784 155.237 36.2938 155.129 36.4017C155.022 36.5097 155.006 38.0364 154.968 51.7073C154.952 60.0578 154.952 67.2981 154.983 67.7916C155.014 68.339 155.076 68.7554 155.129 68.8325C155.222 68.9636 155.438 68.9713 157.882 68.9713C159.787 68.9713 160.573 68.9404 160.689 68.8788C160.781 68.8248 160.874 68.6706 160.905 68.5395C160.928 68.4084 160.951 64.1367 160.951 59.0555C160.951 51.2755 160.966 49.6794 161.067 48.9469C161.19 48.037 161.429 47.0655 161.722 46.3407C162.478 44.4362 164.506 42.1693 166.233 41.298C167.189 40.8199 167.759 40.6965 169.317 40.658C170.859 40.6117 171.638 40.6811 172.818 40.9741C174.822 41.4753 176.21 42.5933 177.028 44.3668C177.297 44.9451 177.637 45.986 177.776 46.6645C177.837 46.9421 177.876 50.4659 177.907 57.7909C177.93 63.6818 177.984 68.5703 178.022 68.6474C178.053 68.7168 178.176 68.8094 178.292 68.8402C178.547 68.9096 183.026 68.9019 183.404 68.8325C183.558 68.8017 183.705 68.7168 183.736 68.6397C183.821 68.447 183.782 47.8905 183.697 46.5489C183.605 45.1764 183.52 44.6212 183.227 43.6034C182.818 42.1615 182.209 40.9047 181.245 39.5168C180.574 38.553 180.12 38.0903 179.295 37.5352C178.608 37.0725 176.997 36.2398 176.118 35.8928C174.977 35.4456 172.532 35.1912 170.474 35.3145Z" fill="#000000" fill-rule="nonzero" opacity="1" stroke="none"/>
<path d="M143.741 36.2861C143.672 36.3092 143.579 36.4326 143.533 36.5636C143.471 36.7333 143.448 41.5524 143.448 52.7405C143.448 66.3882 143.463 68.6937 143.556 68.8248C143.664 68.9636 143.787 68.9713 146.447 68.9713C148.622 68.9713 149.246 68.9482 149.323 68.8711C149.408 68.7862 149.416 65.7945 149.393 52.6017C149.377 42.7861 149.339 36.4017 149.293 36.3555C149.223 36.2784 144.003 36.2167 143.741 36.2861Z" fill="#000000" fill-rule="nonzero" opacity="1" stroke="none"/>
<path d="M190.922 36.3092C189.688 36.3478 189.38 36.3786 189.326 36.4711C189.264 36.5714 189.179 67.3752 189.233 68.3544C189.272 68.8942 189.203 68.8788 191.847 68.8865C193.15 68.8942 194.384 68.8633 194.585 68.8325C194.932 68.7708 194.955 68.7477 195.032 68.4624C195.147 68.0537 195.101 37.0725 194.986 36.741C194.939 36.6099 194.816 36.4634 194.708 36.4094C194.454 36.2861 192.904 36.2475 190.922 36.3092Z" fill="#000000" fill-rule="nonzero" opacity="1" stroke="none"/>
</g>
</g>
</svg>
